Obsidian-SemiLight/actions/22s/office-chart-line.svg

<svg viewBox="0 0 22 22" xmlns="http://www.w3.org/2000/svg"><path d="m4 3v6 1 5 1 1h-1v1h1v1h1v-1h13.292969.707031v-.707031-.292969h-.292969l-.748047-.748047-.828125-.828125-2-2-.003906.003906-.005859-.003906-2.123047 2.123047-1.294922-1.294922-.828125-.828125-2-2h-.0019531-1.8730469-1-1v-.423828-1h1 1 1.8730469.0019531l2-2 .828125-.828125 1.294922-1.2949219 2.123047 2.1230469.005859-.0039062.003906.0039062 2-2 .828125-.828125 1.041016-1.0410156-.707031-.7070313-1.041016 1.0410157-.828125.828125-1.296875 1.296875-2.126953-2.125-.001953.0019531-.001953-.0019531-1.527344 1.5273437h-6.46875v-.9921875-2zm1 3h6.460938l-.464844.4648438-.828125.828125-1.7070315 1.7070312h-1.4609375-1-1zm0 6.423828h1 1 1.4609375l1.7070315 1.707031.828125.828125.464844.464844h-6.460938v-.423828zm10.126953 2.410156 1.296875 1.296875.828125.828125.041016.041016h-12.292969v-1-.568359h6.46875l1.527344 1.527343.001953-.001953.001953.001953z" fill="#4d4d4d"/></svg>

<svg xmlns="http://www.w3.org/2000/svg" viewBox="0 0 22 22">
  <defs id="defs3051">
    <style type="text/css" id="current-color-scheme">
      .ColorScheme-Text {
        color:#4d4d4d;
      }
      .ColorScheme-Highlight {
        color:#3daee9;
      }
      </style>
  </defs>
 <path 
     style="fill:currentColor;fill-opacity:1;stroke:none" 
     d="M 4 3 L 4 9 L 4 10 L 4 15 L 4 16 L 4 17 L 3 17 L 3 18 L 4 18 L 4 19 L 5 19 L 5 18 L 18.292969 18 L 19 18 L 19 17.292969 L 19 17 L 18.707031 17 L 17.958984 16.251953 L 17.130859 15.423828 L 15.130859 13.423828 L 15.126953 13.427734 L 15.121094 13.423828 L 12.998047 15.546875 L 11.703125 14.251953 L 10.875 13.423828 L 8.875 11.423828 L 8.8730469 11.423828 L 7 11.423828 L 6 11.423828 L 5 11.423828 L 5 11 L 5 10 L 6 10 L 7 10 L 8.8730469 10 L 8.875 10 L 10.875 8 L 11.703125 7.171875 L 12.998047 5.8769531 L 15.121094 8 L 15.126953 7.9960938 L 15.130859 8 L 17.130859 6 L 17.958984 5.171875 L 19 4.1308594 L 18.292969 3.4238281 L 17.251953 4.4648438 L 16.423828 5.2929688 L 15.126953 6.5898438 L 13 4.4648438 L 12.998047 4.4667969 L 12.996094 4.4648438 L 11.46875 5.9921875 L 5 5.9921875 L 5 5 L 5 3 L 4 3 z M 5 6 L 11.460938 6 L 10.996094 6.4648438 L 10.167969 7.2929688 L 8.4609375 9 L 7 9 L 6 9 L 5 9 L 5 6 z M 5 12.423828 L 6 12.423828 L 7 12.423828 L 8.4609375 12.423828 L 10.167969 14.130859 L 10.996094 14.958984 L 11.460938 15.423828 L 5 15.423828 L 5 15 L 5 12.423828 z M 15.126953 14.833984 L 16.423828 16.130859 L 17.251953 16.958984 L 17.292969 17 L 5 17 L 5 16 L 5 15.431641 L 11.46875 15.431641 L 12.996094 16.958984 L 12.998047 16.957031 L 13 16.958984 L 15.126953 14.833984 z "
     class="ColorScheme-Text"
     />
</svg>
